; generated by Slic3r 1.34.1.3-prusa3d-win64 on 2017-04-25 at 08:50:19

; external perimeters extrusion width = 0.45mm
; perimeters extrusion width = 0.45mm
; infill extrusion width = 0.45mm
; solid infill extrusion width = 0.45mm
; top infill extrusion width = 0.45mm

M107
M115 U3.0.9 ; tell printer latest fw version
M83  ; extruder relative mode
M104 S215 ; set extruder temp
M140 S55 ; set bed temp
M190 S55 ; wait for bed temp
M109 S215 ; wait for extruder temp
G28 W ; home all without mesh bed level
G80 ; mesh bed leveling
G1 Y-3.0 F1000.0 ; go outside pritn area
G1 X60.0 E9.0  F1000.0 ; intro line
G1 X100.0 E12.5  F1000.0 ; intro line
G21 ; set units to millimeters
G90 ; use absolute coordinates
M83 ; use relative distances for extrusion
G1 E-0.80000 F2100.00000
G1 Z0.200 F7200.000
G1 X97.601 Y96.988 F7200.000
G1 E0.80000 F2100.00000
M204 S1000
G1 F2100
G1 X98.403 Y96.320 E0.03273
G1 X99.390 Y95.839 E0.03444
G1 X100.546 Y95.604 E0.03698
G1 X125.010 Y94.147 E0.76839
G1 X127.319 Y94.292 E0.07255
G1 X129.608 Y94.746 E0.07318
G1 X131.828 Y95.499 E0.07351
G1 X133.938 Y96.548 E0.07388
G1 X135.899 Y97.874 E0.07421
G1 X137.654 Y99.443 E0.07380
G1 X139.199 Y101.250 E0.07454
G1 X140.415 Y103.128 E0.07015
G1 X140.775 Y104.122 E0.03316
G1 X140.871 Y105.103 E0.03089
G1 X140.726 Y106.077 E0.03090
G1 X140.323 Y107.041 E0.03276
G1 X139.157 Y108.808 E0.06636
G1 X137.859 Y110.343 E0.06302
G1 X136.420 Y111.703 E0.06209
G1 X134.675 Y112.998 E0.06813
G1 X133.516 Y113.690 E0.04232
G1 X132.335 Y114.280 E0.04141
G1 X129.970 Y115.155 E0.07906
G1 X127.465 Y115.688 E0.08029
G1 X126.124 Y115.821 E0.04224
G1 X124.781 Y115.851 E0.04213
G1 X100.311 Y114.372 E0.76864
G1 X99.375 Y114.156 E0.03011
G1 X98.501 Y113.743 E0.03033
G1 X97.745 Y113.157 E0.02999
G1 X97.135 Y112.424 E0.02990
G1 X96.610 Y111.341 E0.03775
G1 X96.382 Y110.141 E0.03829
G1 X96.386 Y99.807 E0.32401
G1 X96.589 Y98.727 E0.03445
G1 X96.990 Y97.809 E0.03140
G1 X97.565 Y97.036 E0.03021
G1 X97.866 Y97.263 F7200.000
G1 F2100
G1 X98.655 Y96.606 E0.03217
G1 X99.551 Y96.183 E0.03108
G1 X100.583 Y95.980 E0.03298
G1 X125.012 Y94.524 E0.76729
G1 X127.272 Y94.666 E0.07100
G1 X129.508 Y95.109 E0.07147
G1 X131.685 Y95.848 E0.07209
G1 X133.749 Y96.875 E0.07229
G1 X135.668 Y98.173 E0.07264
G1 X137.383 Y99.706 E0.07212
G1 X138.898 Y101.476 E0.07305
G1 X140.081 Y103.303 E0.06826
G1 X140.420 Y104.260 E0.03184
G1 X140.486 Y105.258 E0.03134
G1 X140.278 Y106.241 E0.03152
G1 X139.785 Y107.210 E0.03411
G1 X138.607 Y108.905 E0.06470
G1 X137.346 Y110.332 E0.05970
G1 X135.962 Y111.593 E0.05872
G1 X134.341 Y112.765 E0.06272
G1 X132.167 Y113.942 E0.07751
G1 X129.856 Y114.795 E0.07723
G1 X127.416 Y115.314 E0.07821
G1 X126.101 Y115.445 E0.04143
G1 X124.786 Y115.474 E0.04124
G1 X100.367 Y113.999 E0.76703
G1 X99.502 Y113.801 E0.02784
G1 X98.697 Y113.421 E0.02790
G1 X98.004 Y112.883 E0.02753
G1 X97.438 Y112.198 E0.02785
G1 X96.965 Y111.214 E0.03424
G1 X96.758 Y110.108 E0.03528
G1 X96.762 Y99.836 E0.32206
G1 X96.951 Y98.831 E0.03207
G1 X97.324 Y97.985 E0.02899
G1 X97.830 Y97.311 E0.02643
G1 F5760
G1 X98.655 Y96.606 E-0.37564
G1 F5760
G1 X99.551 Y96.183 E-0.34336
G1 F5760
G1 X99.667 Y96.160 E-0.04100
G1 E-0.04000 F2100.00000
G1 X127.560 Y103.600 F7200.000
G1 E0.80000 F2100.00000
G1 F840
G1 X127.639 Y103.465 E0.00488
G1 X127.791 Y103.338 E0.00623
G1 X128.051 Y103.271 E0.00842
G1 X128.286 Y103.291 E0.00738
G1 X128.484 Y103.358 E0.00656
G1 X128.676 Y103.483 E0.00719
G1 X128.811 Y103.649 E0.00671
G1 X128.904 Y103.858 E0.00718
G1 X129.090 Y104.505 E0.02110
G1 X129.574 Y105.708 E0.04066
G1 X129.755 Y105.110 E0.01959
G1 X130.129 Y104.036 E0.03567
G1 X130.265 Y103.746 E0.01002
G1 X130.417 Y103.524 E0.00845
G1 X130.577 Y103.371 E0.00695
G1 X130.756 Y103.285 E0.00621
G1 X130.946 Y103.274 E0.00599
G1 X131.135 Y103.342 E0.00629
G1 X131.307 Y103.476 E0.00683
G1 X131.442 Y103.656 E0.00706
G1 X131.526 Y103.872 E0.00729
G1 X131.542 Y104.076 E0.00639
G1 X131.474 Y104.359 E0.00915
G1 X131.188 Y105.012 E0.02236
G1 X130.974 Y105.660 E0.02140
G1 X130.022 Y108.319 E0.08855
G1 X129.641 Y109.301 E0.03303
G1 X129.371 Y109.897 E0.02051
G1 X129.254 Y110.094 E0.00716
G1 X129.079 Y110.318 E0.00893
G1 X128.799 Y110.544 E0.01128
G1 X128.530 Y110.677 E0.00943
G1 X128.309 Y110.753 E0.00731
G1 X128.015 Y110.820 E0.00947
G1 X127.770 Y110.831 E0.00767
G1 X127.560 Y110.788 E0.00674
G1 X127.412 Y110.715 E0.00516
G1 X127.224 Y110.519 E0.00852
G1 X127.122 Y110.305 E0.00745
G1 X127.083 Y110.146 E0.00511
G1 X127.074 Y109.997 E0.00469
G1 X127.114 Y109.800 E0.00629
G1 X127.223 Y109.642 E0.00604
G1 X127.389 Y109.534 E0.00621
G1 X127.867 Y109.396 E0.01557
G1 X128.026 Y109.325 E0.00547
G1 X128.235 Y109.147 E0.00861
G1 X128.373 Y108.918 E0.00840
G1 X128.591 Y108.346 E0.01919
G1 X128.778 Y107.958 E0.01350
G1 X128.839 Y107.727 E0.00748
G1 X128.795 Y107.505 E0.00710
G1 X128.522 Y106.881 E0.02137
G1 X127.928 Y105.276 E0.05364
G1 X127.628 Y104.547 E0.02473
G1 X127.537 Y104.229 E0.01038
G1 X127.505 Y103.869 E0.01132
G1 X127.548 Y103.658 E0.00675
G1 X127.462 Y103.479 F7200.000
G1 X126.829 Y103.827 F7200.000
G1 F840
G1 X126.854 Y103.932 E0.00337
G1 X126.778 Y104.233 E0.00973
G1 X126.091 Y105.396 E0.04235
G1 X126.018 Y105.568 E0.00588
G1 X125.994 Y105.698 E0.00414
G1 X126.004 Y105.817 E0.00375
G1 X126.051 Y105.942 E0.00419
G1 X126.734 Y107.079 E0.04157
G1 X126.869 Y107.379 E0.01034
G1 X126.906 Y107.630 E0.00796
G1 X126.877 Y107.864 E0.00737
G1 X126.777 Y108.065 E0.00705
G1 X126.571 Y108.231 E0.00829
G1 X126.354 Y108.301 E0.00715
G1 X126.126 Y108.307 E0.00717
G1 X125.920 Y108.244 E0.00674
G1 X125.753 Y108.119 E0.00655
G1 X125.565 Y107.859 E0.01006
G1 X125.105 Y107.029 E0.02975
G1 X124.936 Y107.401 E0.01280
G1 X124.744 Y107.728 E0.01189
G1 X124.538 Y108.019 E0.01118
G1 X124.374 Y108.182 E0.00726
G1 X124.130 Y108.295 E0.00843
G1 X123.856 Y108.268 E0.00861
G1 X123.604 Y108.129 E0.00901
G1 X123.458 Y107.957 E0.00709
G1 X123.394 Y107.772 E0.00615
G1 X123.389 Y107.625 E0.00462
G1 X123.430 Y107.417 E0.00663
G1 X123.496 Y107.252 E0.00558
G1 X124.023 Y106.327 E0.03338
G1 X124.350 Y105.866 E0.01772
G1 X124.383 Y105.773 E0.00309
G1 X124.351 Y105.667 E0.00346
G1 X124.118 Y105.315 E0.01323
G1 X123.559 Y104.309 E0.03609
G1 X123.475 Y104.061 E0.00819
G1 X123.460 Y103.782 E0.00876
G1 X123.565 Y103.540 E0.00828
G1 X123.775 Y103.365 E0.00857
G1 X123.925 Y103.301 E0.00513
G1 X124.091 Y103.271 E0.00529
G1 X124.218 Y103.274 E0.00397
G1 X124.401 Y103.331 E0.00602
G1 X124.529 Y103.411 E0.00474
G1 X124.694 Y103.571 E0.00720
G1 X124.920 Y103.899 E0.01250
G1 X125.191 Y104.426 E0.01857
G1 X125.367 Y104.027 E0.01367
G1 X125.516 Y103.757 E0.00965
G1 X125.700 Y103.535 E0.00904
G1 X125.887 Y103.380 E0.00760
G1 X126.136 Y103.272 E0.00853
G1 X126.399 Y103.294 E0.00825
G1 X126.634 Y103.444 E0.00876
G1 X126.789 Y103.658 E0.00827
G1 X126.815 Y103.769 E0.00358
G1 X126.934 Y103.850 F7200.000
G1 F5760
G1 X126.854 Y103.932 E-0.05798
G1 F5760
G1 X126.778 Y104.233 E-0.10751
G1 F5760
G1 X126.091 Y105.396 E-0.46780
G1 F5760
G1 X126.018 Y105.568 E-0.06492
G1 F5760
G1 X125.994 Y105.698 E-0.04573
G1 F5760
G1 X125.998 Y105.744 E-0.01606
G1 E-0.04000 F2100.00000
G1 X122.722 Y106.618 F7200.000
G1 E0.80000 F2100.00000
G1 F840
G1 X122.838 Y106.798 E0.00672
G1 X122.923 Y107.000 E0.00685
G1 X122.978 Y107.306 E0.00976
G1 X122.968 Y107.525 E0.00688
G1 X122.920 Y107.738 E0.00684
G1 X122.787 Y108.019 E0.00974
G1 X122.653 Y108.192 E0.00688
G1 X122.489 Y108.338 E0.00687
G1 X122.217 Y108.490 E0.00976
G1 X122.007 Y108.552 E0.00688
G1 X121.795 Y108.575 E0.00669
G1 X121.581 Y108.560 E0.00671
G1 X121.374 Y108.509 E0.00668
G1 X121.174 Y108.420 E0.00689
G1 X120.924 Y108.233 E0.00977
G1 X120.782 Y108.067 E0.00685
G1 X120.672 Y107.879 E0.00684
G1 X120.576 Y107.583 E0.00977
G1 X120.558 Y107.364 E0.00688
G1 X120.576 Y107.146 E0.00685
G1 X120.672 Y106.850 E0.00977
G1 X120.782 Y106.662 E0.00684
G1 X120.921 Y106.499 E0.00671
G1 X121.087 Y106.364 E0.00669
G1 X121.273 Y106.258 E0.00673
G1 X121.481 Y106.188 E0.00686
G1 X121.758 Y106.155 E0.00875
G1 X122.005 Y106.177 E0.00779
G1 X122.213 Y106.238 E0.00681
G1 X122.404 Y106.335 E0.00672
G1 X122.575 Y106.462 E0.00666
G1 X122.681 Y106.574 E0.00485
G1 X122.934 Y106.589 F7200.000
G1 F5760
G1 X122.838 Y106.798 E-0.09478
G1 F5760
G1 X122.923 Y107.000 E-0.07567
G1 F5760
G1 X122.978 Y107.306 E-0.10778
G1 F5760
G1 X122.968 Y107.525 E-0.07603
G1 F5760
G1 X122.920 Y107.738 E-0.07555
G1 F5760
G1 X122.787 Y108.019 E-0.10758
G1 F5760
G1 X122.653 Y108.192 E-0.07604
G1 F5760
G1 X122.489 Y108.338 E-0.07592
G1 F5760
G1 X122.311 Y108.437 E-0.07065
G1 E-0.04000 F2100.00000
G1 X116.246 Y108.060 F7200.000
G1 E0.80000 F2100.00000
G1 F840
G1 X116.101 Y107.942 E0.00584
G1 X115.993 Y107.765 E0.00651
G1 X115.926 Y107.539 E0.00737
G1 X115.902 Y107.267 E0.00857
G1 X115.920 Y106.665 E0.01889
G1 X115.924 Y103.050 E0.11334
G1 X115.882 Y102.425 E0.01966
G1 X115.957 Y102.151 E0.00889
G1 X116.150 Y101.964 E0.00843
G1 X116.431 Y101.855 E0.00945
G1 X116.728 Y101.824 E0.00936
G1 X118.337 Y101.860 E0.05045
G1 X118.789 Y101.919 E0.01430
G1 X119.259 Y102.042 E0.01523
G1 X119.636 Y102.226 E0.01318
G1 X119.978 Y102.499 E0.01371
G1 X120.248 Y102.815 E0.01302
G1 X120.497 Y103.239 E0.01542
G1 X120.641 Y103.604 E0.01231
G1 X120.716 Y103.873 E0.00876
G1 X120.811 Y104.473 E0.01905
G1 X120.831 Y104.980 E0.01589
G1 X120.817 Y105.334 E0.01111
G1 X120.725 Y105.969 E0.02010
G1 X120.556 Y106.511 E0.01781
G1 X120.441 Y106.759 E0.00858
G1 X120.242 Y107.080 E0.01183
G1 X120.010 Y107.355 E0.01131
G1 X119.827 Y107.523 E0.00777
G1 X119.637 Y107.667 E0.00748
G1 X119.335 Y107.837 E0.01084
G1 X118.909 Y107.981 E0.01410
G1 X118.372 Y108.067 E0.01707
G1 X117.850 Y108.094 E0.01638
G1 X117.032 Y108.086 E0.02564
G1 X116.588 Y108.128 E0.01400
G1 X116.382 Y108.111 E0.00647
G1 X116.302 Y108.081 E0.00269
G1 X116.085 Y108.153 F7200.000
G1 F5760
G1 X116.101 Y107.942 E-0.08445
G1 F5760
G1 X115.993 Y107.765 E-0.07195
G1 F5760
G1 X115.926 Y107.539 E-0.08146
G1 F5760
G1 X115.902 Y107.267 E-0.09464
G1 F5760
G1 X115.920 Y106.665 E-0.20871
G1 F5760
G1 X115.920 Y106.033 E-0.21879
G1 E-0.04000 F2100.00000
G1 X112.685 Y103.474 F7200.000
G1 E0.80000 F2100.00000
G1 F840
G1 X112.561 Y103.530 E0.00428
G1 X112.318 Y103.571 E0.00772
G1 X112.591 Y103.401 E0.01007
G1 X112.734 Y103.368 E0.00463
G1 X112.725 Y103.430 E0.00194
G1 X111.807 Y103.416 F7200.000
G1 F840
G1 X111.617 Y103.434 E0.00597
G1 X111.423 Y103.371 E0.00639
G1 X111.225 Y103.216 E0.00789
G1 X111.084 Y103.019 E0.00758
G1 X111.002 Y102.796 E0.00747
G1 X110.994 Y102.576 E0.00691
G1 X111.091 Y102.329 E0.00832
G1 X111.243 Y102.149 E0.00739
G1 X111.453 Y101.991 E0.00824
G1 X111.730 Y101.847 E0.00979
G1 X112.039 Y101.743 E0.01022
G1 X112.384 Y101.681 E0.01098
G1 X112.988 Y101.666 E0.01893
G1 X113.269 Y101.696 E0.00887
G1 X113.595 Y101.767 E0.01046
G1 X113.800 Y101.840 E0.00682
G1 X114.061 Y101.980 E0.00931
G1 X114.221 Y102.103 E0.00631
G1 X114.416 Y102.314 E0.00899
G1 X114.563 Y102.555 E0.00888
G1 X114.661 Y102.889 E0.01089
G1 X114.679 Y103.185 E0.00932
G1 X114.642 Y103.677 E0.01544
G1 X114.554 Y104.002 E0.01059
G1 X114.429 Y104.205 E0.00748
G1 X114.254 Y104.365 E0.00743
G1 X113.994 Y104.509 E0.00929
G1 X114.230 Y104.608 E0.00802
G1 X114.366 Y104.698 E0.00510
G1 X114.521 Y104.860 E0.00704
G1 X114.642 Y105.066 E0.00749
G1 X114.753 Y105.377 E0.01034
G1 X114.872 Y105.809 E0.01405
G1 X114.919 Y106.127 E0.01010
G1 X114.898 Y106.533 E0.01275
G1 X114.781 Y106.954 E0.01371
G1 X114.628 Y107.271 E0.01102
G1 X114.363 Y107.630 E0.01399
G1 X114.035 Y107.911 E0.01353
G1 X113.651 Y108.114 E0.01364
G1 X113.234 Y108.228 E0.01357
G1 X112.859 Y108.265 E0.01180
G1 X112.449 Y108.259 E0.01287
G1 X112.202 Y108.230 E0.00778
G1 X111.884 Y108.159 E0.01023
G1 X111.596 Y108.050 E0.00965
G1 X111.373 Y107.914 E0.00818
G1 X111.186 Y107.732 E0.00818
G1 X111.045 Y107.472 E0.00930
G1 X110.991 Y107.223 E0.00797
G1 X111.024 Y106.918 E0.00964
G1 X111.171 Y106.674 E0.00893
G1 X111.406 Y106.526 E0.00870
G1 X111.707 Y106.473 E0.00960
G1 X111.954 Y106.501 E0.00780
G1 X112.156 Y106.575 E0.00672
G1 X112.586 Y106.884 E0.01661
G1 X112.690 Y106.938 E0.00370
G1 X112.828 Y106.957 E0.00437
G1 X112.948 Y106.937 E0.00381
G1 X113.142 Y106.843 E0.00676
G1 X113.254 Y106.745 E0.00469
G1 X113.340 Y106.621 E0.00471
G1 X113.394 Y106.480 E0.00475
G1 X113.415 Y106.268 E0.00667
G1 X113.370 Y106.060 E0.00667
G1 X113.250 Y105.835 E0.00802
G1 X113.113 Y105.677 E0.00654
G1 X112.947 Y105.546 E0.00665
G1 X112.759 Y105.451 E0.00659
G1 X112.625 Y105.407 E0.00443
G1 X112.131 Y105.316 E0.01576
G1 X111.929 Y105.239 E0.00675
G1 X111.749 Y105.068 E0.00779
G1 X111.679 Y104.869 E0.00664
G1 X111.675 Y104.646 E0.00698
G1 X111.732 Y104.417 E0.00740
G1 X111.808 Y104.264 E0.00536
G1 X111.956 Y104.093 E0.00707
G1 X112.198 Y103.974 E0.00848
G1 X112.653 Y103.897 E0.01447
G1 X112.803 Y103.846 E0.00496
G1 X112.927 Y103.767 E0.00461
G1 X113.028 Y103.660 E0.00462
G1 X113.094 Y103.544 E0.00419
G1 X113.119 Y103.436 E0.00347
G1 X113.104 Y103.273 E0.00514
G1 X113.059 Y103.165 E0.00367
G1 X112.988 Y103.077 E0.00353
G1 X112.908 Y103.024 E0.00301
G1 X112.808 Y102.993 E0.00330
G1 X112.679 Y102.990 E0.00403
G1 X112.458 Y103.046 E0.00714
G1 X111.951 Y103.360 E0.01870
G1 X111.862 Y103.394 E0.00298
G1 X111.752 Y103.599 F7200.000
G1 F5760
G1 X111.617 Y103.434 E-0.08614
G1 F5760
G1 X111.423 Y103.371 E-0.07059
G1 F5760
G1 X111.225 Y103.216 E-0.08714
G1 F5760
G1 X111.084 Y103.019 E-0.08368
G1 F5760
G1 X111.002 Y102.796 E-0.08247
G1 F5760
G1 X110.994 Y102.576 E-0.07629
G1 F5760
G1 X111.091 Y102.329 E-0.09196
G1 F5760
G1 X111.243 Y102.149 E-0.08158
G1 F5760
G1 X111.453 Y101.991 E-0.09102
G1 F5760
G1 X111.476 Y101.979 E-0.00914
G1 E-0.04000 F2100.00000
G1 X110.114 Y101.936 F7200.000
G1 E0.80000 F2100.00000
G1 F840
G1 X110.224 Y102.034 E0.00463
G1 X110.322 Y102.211 E0.00634
G1 X110.369 Y102.503 E0.00928
G1 X110.327 Y102.770 E0.00844
G1 X110.225 Y102.961 E0.00681
G1 X110.024 Y103.114 E0.00792
G1 X109.812 Y103.181 E0.00697
G1 X109.485 Y103.215 E0.01032
G1 X108.557 Y103.201 E0.02909
G1 X108.461 Y103.243 E0.00328
G1 X108.436 Y103.451 E0.00659
G1 X108.453 Y107.364 E0.12270
G1 X108.408 Y107.613 E0.00793
G1 X108.320 Y107.816 E0.00694
G1 X108.173 Y107.982 E0.00693
G1 X107.986 Y108.084 E0.00669
G1 X107.694 Y108.123 E0.00923
G1 X107.383 Y108.053 E0.01000
G1 X107.173 Y107.900 E0.00816
G1 X107.094 Y107.767 E0.00485
G1 X107.050 Y107.576 E0.00615
G1 X107.089 Y106.928 E0.02033
G1 X107.072 Y104.145 E0.08727
G1 X107.108 Y103.581 E0.01772
G1 X107.084 Y103.409 E0.00546
G1 X107.046 Y103.337 E0.00254
G1 X106.979 Y103.270 E0.00298
G1 X106.799 Y103.193 E0.00612
G1 X106.543 Y103.180 E0.00805
G1 X105.819 Y103.255 E0.02283
G1 X105.609 Y103.217 E0.00670
G1 X105.434 Y103.119 E0.00627
G1 X105.299 Y102.958 E0.00659
G1 X105.214 Y102.754 E0.00695
G1 X105.183 Y102.521 E0.00737
G1 X105.218 Y102.291 E0.00730
G1 X105.315 Y102.084 E0.00713
G1 X105.464 Y101.927 E0.00681
G1 X105.629 Y101.839 E0.00586
G1 X105.857 Y101.803 E0.00725
G1 X106.484 Y101.846 E0.01971
G1 X109.794 Y101.835 E0.10376
G1 X109.946 Y101.860 E0.00483
G1 X110.060 Y101.911 E0.00391
G1 X110.247 Y101.871 F7200.000
G1 F5760
G1 X110.224 Y102.034 E-0.07121
G1 F5760
G1 X110.322 Y102.211 E-0.07004
G1 F5760
G1 X110.369 Y102.503 E-0.10247
G1 F5760
G1 X110.327 Y102.770 E-0.09326
G1 F5760
G1 X110.225 Y102.961 E-0.07524
G1 F5760
G1 X110.024 Y103.114 E-0.08749
G1 F5760
G1 X109.812 Y103.181 E-0.07700
G1 F5760
G1 X109.485 Y103.215 E-0.11400
G1 F5760
G1 X109.285 Y103.212 E-0.06929
G1 E-0.04000 F2100.00000
G1 X104.554 Y102.927 F7200.000
G1 E0.80000 F2100.00000
G1 F840
G1 X104.528 Y103.078 E0.00479
G1 X104.442 Y103.275 E0.00674
G1 X104.337 Y103.411 E0.00538
G1 X104.162 Y103.545 E0.00691
G1 X103.953 Y103.609 E0.00684
G1 X103.741 Y103.597 E0.00668
G1 X103.511 Y103.525 E0.00754
G1 X102.821 Y103.135 E0.02486
G1 X102.671 Y103.090 E0.00491
G1 X102.546 Y103.079 E0.00394
G1 X102.261 Y103.111 E0.00898
G1 X102.051 Y103.182 E0.00696
G1 X101.860 Y103.288 E0.00686
G1 X101.704 Y103.421 E0.00641
G1 X101.533 Y103.651 E0.00899
G1 X101.430 Y103.874 E0.00772
G1 X101.349 Y104.149 E0.00899
G1 X101.296 Y104.484 E0.01064
